X:1
T: Janet Beaton
C:
R:Jig
Q:180
K:Bb
M:6/8
L:1/16
|:dc|B2F2E2 D2E2F2|G2E2G2 F4g2|f2B2B2 d2c2B2|A2c4 c2d2c2|
B2F2E2 D2E2F2|G2E2G2 F4g2|f2b2d2 c2a2c2|B6B4:|
|:B2|b2a2b2 g2b2g2|f2d2B2 B2b2g2|f2B2B2 d2c2B2|
|1A2F2F2 F4f2|b2a2b2 g2b2g2|f2d2B2 f2g2a2|b4G2 e2c2A2|B6B2d2f2:|
|2A2F2F2 F2G2A2|B2F2E2 D2E2F2|G2E2G2 F4g2|f2b2d2 c2a2c2|B6B4||
